SVG_Azure_Grouped/Networking/Application Gateway WAF Custom Rule.svg

<?xml version="1.0" encoding="UTF-8" standalone="no"?>
<!-- Generated by Microsoft Visio, SVG Export Application Gateway WAF Custom Rule.svg Page-1 -->

<svg
   xmlns:dc="http://purl.org/dc/elements/1.1/"
   xmlns:cc="http://creativecommons.org/ns#"
   xmlns:rdf="http://www.w3.org/1999/02/22-rdf-syntax-ns#"
   xmlns:svg="http://www.w3.org/2000/svg"
   xmlns="http://www.w3.org/2000/svg"
   xmlns:sodipodi="http://sodipodi.sourceforge.net/DTD/sodipodi-0.dtd"
   xmlns:inkscape="http://www.inkscape.org/namespaces/inkscape"
   width="0.78735709in"
   height="0.78735709in"
   viewBox="0 0 56.689778 56.689998"
   xml:space="preserve"
   class="st5"
   version="1.1"
   id="svg44"
   sodipodi:docname="Application Gateway WAF Custom Rule.svg"
   style="font-size:12px;overflow:visible;color-interpolation-filters:sRGB;fill:none;fill-rule:evenodd;stroke-linecap:square;stroke-miterlimit:3"
   inkscape:version="0.92.5 (2060ec1f9f, 2020-04-08)"><metadata
   id="metadata50"><rdf:RDF><cc:Work
       rdf:about=""><dc:format>image/svg+xml</dc:format><dc:type
         rdf:resource="http://purl.org/dc/dcmitype/StillImage" /></cc:Work></rdf:RDF></metadata><defs
   id="defs48" /><sodipodi:namedview
   pagecolor="#ffffff"
   bordercolor="#666666"
   borderopacity="1"
   objecttolerance="10"
   gridtolerance="10"
   guidetolerance="10"
   inkscape:pageopacity="0"
   inkscape:pageshadow="2"
   inkscape:window-width="640"
   inkscape:window-height="480"
   id="namedview46"
   showgrid="false"
   inkscape:zoom="1.7193066"
   inkscape:cx="37.795072"
   inkscape:cy="23.279613"
   inkscape:window-x="0"
   inkscape:window-y="0"
   inkscape:window-maximized="0"
   inkscape:current-layer="svg44" />
	<style
   type="text/css"
   id="style2">
	<![CDATA[
		.st1 {fill:#ffffff;stroke:none;stroke-linecap:butt;stroke-width:12.24}
		.st2 {fill:#59b4d9;fill-opacity:0.2;stroke:none;stroke-linecap:butt;stroke-width:12.24}
		.st3 {fill:#59b4d9;stroke:none;stroke-linecap:butt;stroke-width:12.24}
		.st4 {fill:#7a7a7a;stroke:none;stroke-linecap:butt;stroke-width:12.24}
		.st5 {fill:none;fill-rule:evenodd;font-size:12px;overflow:visible;stroke-linecap:square;stroke-miterlimit:3}
	]]>
	</style>

	<g
   id="g42"
   transform="translate(-12.24016,-12.2443)">
		<title
   id="title4">Page-1</title>
		<g
   id="group18207-1"
   transform="translate(12.24,-34.0157)">
			<title
   id="title6">Application Gateway WAF Custom Rule.18207</title>
			<g
   id="group18208-2">
				<title
   id="title8">Sheet.18208</title>
				<g
   id="shape18209-3"
   transform="translate(9.7576,-1.20623)">
					<title
   id="title10">Sheet.18209</title>
					<path
   d="m 31.5,102.95 c -2.77,0 -5.56,-2.07 -5.56,-6.03 0,-1.86 0.69,-3.54 1.91,-4.83 H 0 V 58.2 c 0,-5.5 4.25,-9.65 9.88,-9.65 h 31.64 l -2.11,2.06 c -1.14,1.11 -2.36,3.94 -2.36,6.38 v 38.72 c 0,3.34 -1.45,7.24 -5.55,7.24 z"
   class="st1"
   id="path12"
   inkscape:connector-curvature="0"
   style="fill:#ffffff;stroke:none;stroke-width:12.23999977;stroke-linecap:butt" />
				</g>
				<g
   id="shape18210-5"
   transform="translate(9.7576,-1.20623)">
					<title
   id="title15">Sheet.18210</title>
					<path
   d="m 31.5,102.95 c -2.77,0 -5.56,-2.07 -5.56,-6.03 0,-1.86 0.69,-3.54 1.91,-4.83 H 0 V 58.2 c 0,-5.5 4.25,-9.65 9.88,-9.65 h 31.64 l -2.11,2.06 c -1.14,1.11 -2.36,3.94 -2.36,6.38 v 38.72 c 0,3.34 -1.45,7.24 -5.55,7.24 z"
   class="st1"
   id="path17"
   inkscape:connector-curvature="0"
   style="fill:#ffffff;stroke:none;stroke-width:12.23999977;stroke-linecap:butt" />
				</g>
				<g
   id="shape18211-7"
   transform="translate(9.7576,-1.20623)">
					<title
   id="title20">Sheet.18211</title>
					<path
   d="m 31.5,102.95 c -2.77,0 -5.56,-2.07 -5.56,-6.03 0,-1.86 0.69,-3.54 1.91,-4.83 H 0 V 58.2 c 0,-5.5 4.25,-9.65 9.88,-9.65 h 31.64 l -2.11,2.06 c -1.14,1.11 -2.36,3.94 -2.36,6.38 v 38.72 c 0,3.34 -1.45,7.24 -5.55,7.24 z"
   class="st2"
   id="path22"
   inkscape:connector-curvature="0"
   style="fill:#59b4d9;fill-opacity:0.2;stroke:none;stroke-width:12.23999977;stroke-linecap:butt" />
				</g>
				<g
   id="shape18212-9">
					<title
   id="title25">Sheet.18212</title>
					<path
   d="M 50.52,46.26 H 20.87 c -7.41,0 -12.35,4.7 -12.35,11.94 V 89.68 H 6.67 C 2.96,89.68 0,92.7 0,96.31 c 0,3.62 2.96,6.64 6.67,6.64 h 35.2 c 4.94,0 6.18,-4.83 6.18,-7.24 V 55.78 h 8.15 c 0.25,-0.84 0.49,-1.68 0.49,-2.77 0,-3.74 -2.71,-6.75 -6.17,-6.75 z m -4.94,9.52 v 39.93 c 0,2.41 -0.62,4.83 -4.33,4.83 -2.1,0 -4.32,-1.57 -4.32,-4.83 0,-3.01 2.1,-5.19 4.94,-5.91 V 89.68 H 10.99 V 56.99 c 0,-4.82 3.71,-8.44 8.65,-8.44 h 28.65 c -1.35,1.32 -2.71,4.46 -2.71,7.23 z"
   class="st3"
   id="path27"
   inkscape:connector-curvature="0"
   style="fill:#59b4d9;stroke:none;stroke-width:12.23999977;stroke-linecap:butt" />
				</g>
				<g
   id="shape18213-11"
   transform="translate(22.109,-16.8873)">
					<title
   id="title30">Sheet.18213</title>
					<path
   d="M 0,81.24 H 17.29 V 78.82 H 0 Z M 0,95.71 H 17.29 V 93.3 H 0 Z m 0,7.24 h 17.29 v -2.41 H 0 Z M 0,74 H 17.29 V 71.59 H 0 Z M 0,88.47 H 17.29 V 86.06 H 0 Z"
   class="st4"
   id="path32"
   inkscape:connector-curvature="0"
   style="fill:#7a7a7a;stroke:none;stroke-width:12.23999977;stroke-linecap:butt" />
				</g>
				<g
   id="shape18214-13"
   transform="translate(14.6982,-15.681)">
					<title
   id="title35">Sheet.18214</title>
					<path
   d="M 0,70.38 H 3.71 V 74 H 0 Z m 0,7.24 h 3.71 v 3.62 H 0 Z m 0,7.24 h 3.71 v 3.61 H 0 Z m 0,7.23 h 3.71 v 3.62 H 0 Z m 0,7.24 h 3.71 v 3.62 H 0 Z"
   class="st3"
   id="path37"
   inkscape:connector-curvature="0"
   style="fill:#59b4d9;stroke:none;stroke-width:12.23999977;stroke-linecap:butt" />
				</g>
			</g>
		</g>
	</g>
</svg>

<?xml version="1.0" encoding="UTF-8" standalone="no"?>
<!DOCTYPE svg PUBLIC "-//W3C//DTD SVG 1.1//EN" "http://www.w3.org/Graphics/SVG/1.1/DTD/svg11.dtd">
<!-- Generated by Microsoft Visio, SVG Export Application Gateway WAF Custom Rule.svg Page-1 -->
<svg xmlns="http://www.w3.org/2000/svg" xmlns:xlink="http://www.w3.org/1999/xlink" xmlns:ev="http://www.w3.org/2001/xml-events"
		width="1.1274in" height="1.42984in" viewBox="0 0 81.1729 102.949" xml:space="preserve" color-interpolation-filters="sRGB"
		class="st5">
	<style type="text/css">
	<![CDATA[
		.st1 {fill:#ffffff;stroke:none;stroke-linecap:butt;stroke-width:12.24}
		.st2 {fill:#59b4d9;fill-opacity:0.2;stroke:none;stroke-linecap:butt;stroke-width:12.24}
		.st3 {fill:#59b4d9;stroke:none;stroke-linecap:butt;stroke-width:12.24}
		.st4 {fill:#7a7a7a;stroke:none;stroke-linecap:butt;stroke-width:12.24}
		.st5 {fill:none;fill-rule:evenodd;font-size:12px;overflow:visible;stroke-linecap:square;stroke-miterlimit:3}
	]]>
	</style>

	<g>
		<title>Page-1</title>
		<g id="group17777-1" transform="translate(12.24,-34.0157)">
			<title>Application Gateway WAF Custom Rule.17777</title>
			<g id="group17778-2">
				<title>Sheet.17778</title>
				<g id="shape17779-3" transform="translate(9.7576,-1.20623)">
					<title>Sheet.17779</title>
					<path d="M31.5 102.95 C28.73 102.95 25.94 100.88 25.94 96.92 C25.94 95.06 26.63 93.38 27.85 92.09 L0 92.09 L0
								 58.2 C0 52.7 4.25 48.55 9.88 48.55 L41.52 48.55 L39.41 50.61 C38.27 51.72 37.05 54.55 37.05 56.99
								 L37.05 95.71 C37.05 99.05 35.6 102.95 31.5 102.95 Z" class="st1"/>
				</g>
				<g id="shape17780-5" transform="translate(9.7576,-1.20623)">
					<title>Sheet.17780</title>
					<path d="M31.5 102.95 C28.73 102.95 25.94 100.88 25.94 96.92 C25.94 95.06 26.63 93.38 27.85 92.09 L0 92.09 L0
								 58.2 C0 52.7 4.25 48.55 9.88 48.55 L41.52 48.55 L39.41 50.61 C38.27 51.72 37.05 54.55 37.05 56.99
								 L37.05 95.71 C37.05 99.05 35.6 102.95 31.5 102.95 Z" class="st1"/>
				</g>
				<g id="shape17781-7" transform="translate(9.7576,-1.20623)">
					<title>Sheet.17781</title>
					<path d="M31.5 102.95 C28.73 102.95 25.94 100.88 25.94 96.92 C25.94 95.06 26.63 93.38 27.85 92.09 L0 92.09 L0
								 58.2 C0 52.7 4.25 48.55 9.88 48.55 L41.52 48.55 L39.41 50.61 C38.27 51.72 37.05 54.55 37.05 56.99
								 L37.05 95.71 C37.05 99.05 35.6 102.95 31.5 102.95 Z" class="st2"/>
				</g>
				<g id="shape17782-9">
					<title>Sheet.17782</title>
					<path d="M50.52 46.26 L20.87 46.26 C13.46 46.26 8.52 50.96 8.52 58.2 L8.52 89.68 L6.67 89.68 C2.96 89.68 0 92.7
								 0 96.31 C0 99.93 2.96 102.95 6.67 102.95 L41.87 102.95 C46.81 102.95 48.05 98.12 48.05 95.71 L48.05
								 55.78 L56.2 55.78 C56.45 54.94 56.69 54.1 56.69 53.01 C56.69 49.27 53.98 46.26 50.52 46.26 ZM45.58
								 55.78 L45.58 95.71 C45.58 98.12 44.96 100.54 41.25 100.54 C39.15 100.54 36.93 98.97 36.93 95.71
								 C36.93 92.7 39.03 90.52 41.87 89.8 L41.87 89.68 L10.99 89.68 L10.99 56.99 C10.99 52.17 14.7 48.55
								 19.64 48.55 L48.29 48.55 C46.94 49.87 45.58 53.01 45.58 55.78 Z" class="st3"/>
				</g>
				<g id="shape17783-11" transform="translate(22.109,-16.8873)">
					<title>Sheet.17783</title>
					<path d="M0 81.24 L17.29 81.24 L17.29 78.82 L0 78.82 L0 81.24 ZM0 95.71 L17.29 95.71 L17.29 93.3 L0 93.3 L0 95.71
								 ZM0 102.95 L17.29 102.95 L17.29 100.54 L0 100.54 L0 102.95 ZM0 74 L17.29 74 L17.29 71.59 L0 71.59
								 L0 74 ZM0 88.47 L17.29 88.47 L17.29 86.06 L0 86.06 L0 88.47 Z" class="st4"/>
				</g>
				<g id="shape17784-13" transform="translate(14.6982,-15.681)">
					<title>Sheet.17784</title>
					<path d="M0 70.38 L3.71 70.38 L3.71 74 L0 74 L0 70.38 ZM0 77.62 L3.71 77.62 L3.71 81.24 L0 81.24 L0 77.62 ZM0
								 84.86 L3.71 84.86 L3.71 88.47 L0 88.47 L0 84.86 ZM0 92.09 L3.71 92.09 L3.71 95.71 L0 95.71 L0 92.09
								 ZM0 99.33 L3.71 99.33 L3.71 102.95 L0 102.95 L0 99.33 Z" class="st3"/>
				</g>
			</g>
		</g>
	</g>
</svg>
